X:1
T:Title
L:1/8
M:none
I:linebreak $
K:A
V:1 treble nm="Voice"
V:1
 ee |"A" eccc c2 ee | eccc c2 ee | fAeA dAcA |"E7" dBBB B2 dd |"E7" dBBB B2 dd | dBBB B2 (3Bcd |1 %7
 e2 ee gfeg |"A" fecf"E" e2 :|2 e2 ee"D" fefg |"A" a6 cd |:"A" Pe4"D" Pf4 |"A" e3 f e2 AB | %13
 c2 cc"D" d2 dd |"A" c3 d c2 cd |"A" c2 A2 G2 A2 |"E" B3 c B2 Bc |1 e2 e2 gfeg | %18
"A" fe^df"E" e2 c=d :| e2 e2 fefg |"A" afec A2 |] %21
